Gruvbox-Plus-Dark/actions/22/notifications.svg

<svg width="22" height="22" xmlns="http://www.w3.org/2000/svg">
   <style type="text/css" id="current-color-scheme">
      .ColorScheme-Text {
         color: #ebdbb2;
      }

      .ColorScheme-Highlight {
         color: #458588;
      }
   </style>
   <path style="fill:currentColor"
      d="m 11,3.9986045 a 0.93351942,0.93351942 0 0 1 0.927918,1.0268713 4.6554612,4.6554612 0 0 1 3.73968,4.5742451 v 4.2008371 l 1.867038,1.867039 v 0.46676 H 4.4653641 v -0.46676 L 6.3324029,13.800559 V 9.5997209 A 4.6563947,4.6563947 0 0 1 10.072082,5.0254758 0.93351942,0.93351942 0 0 1 11,3.9986045 Z M 12.614055,17.067875 A 1.8670388,1.8670388 0 0 1 11,18.001395 1.8670388,1.8670388 0 0 1 9.3850113,17.067875 Z"
      class="ColorScheme-Text" fill="currentColor" />
</svg>

<svg width="22" height="22" xmlns="http://www.w3.org/2000/svg">
  <style id="current-color-scheme" type="text/css">.ColorScheme-Text {
         color: #ebdbb2;
      }

      .ColorScheme-Highlight {
         color: #458588;
      }</style>
  <path class="ColorScheme-Text" d="m11 3.999a0.9335 0.9335 0 0 1 0.9279 1.027 4.655 4.655 0 0 1 3.74 4.574v4.201l1.867 1.867v0.4668h-13.07v-0.4668l1.867-1.867v-4.201a4.656 4.656 0 0 1 3.74-4.574 0.9335 0.9335 0 0 1 0.9279-1.027zm1.614 13.07a1.867 1.867 0 0 1-1.614 0.9335 1.867 1.867 0 0 1-1.615-0.9335z" fill="currentColor"/>
</svg>
